client/src/assets/images/cuvette.svg

<svg width="121" height="30" viewBox="0 0 121 30" fill="none" xmlns="http://www.w3.org/2000/svg">
<path d="M10.5231 28.714C8.47952 28.714 6.67991 28.22 5.09381 27.2011C3.50772 26.1823 2.28764 24.8237 1.37258 23.1874C0.457528 21.5201 0 19.6676 0 17.6607C0 15.6538 0.427026 13.8322 1.31158 12.2266C2.19614 10.5902 3.41621 9.26261 5.00231 8.27461C6.58841 7.2866 8.38802 6.76172 10.4621 6.76172C12.4143 6.76172 14.1224 7.22485 15.5865 8.15111C16.8065 8.86124 17.7521 9.81837 18.4841 10.9608C18.7587 11.393 18.5451 11.9488 18.0876 12.1031L16.8675 12.5045C16.532 12.5971 16.1965 12.4736 16.0135 12.1649C15.4645 11.3313 14.7324 10.652 13.8174 10.158C12.7803 9.54049 11.6212 9.23174 10.3401 9.23174C8.93705 9.23174 7.62547 9.60224 6.4969 10.3432C5.36833 11.0843 4.45327 12.1031 3.78223 13.3999C3.11119 14.6658 2.77567 16.1169 2.77567 17.6916C2.77567 19.2971 3.11119 20.7482 3.81274 22.045C4.51428 23.3417 5.42934 24.3915 6.58841 25.1634C7.74748 25.9353 8.99805 26.3058 10.4011 26.3058C11.3162 26.3058 12.2008 26.1514 13.0548 25.8117C13.9089 25.4721 14.6409 25.0399 15.2509 24.515C15.678 24.1136 16.0135 23.6814 16.2575 23.2491C16.41 22.9404 16.776 22.786 17.1116 22.8786L18.3316 23.2491C18.7892 23.3726 19.0027 23.8975 18.7892 24.3297C18.4231 25.009 17.9351 25.6265 17.3251 26.2131C16.471 26.985 15.4645 27.6334 14.2749 28.0656C13.1158 28.4979 11.8347 28.714 10.5231 28.714Z" fill="#222F3E"/>
<path d="M45.5094 27.8505L37.6399 8.21382C37.4264 7.71982 37.7924 7.16406 38.3414 7.16406H39.5615C39.8665 7.16406 40.141 7.34931 40.263 7.65807L46.7599 24.3925C46.9124 24.8247 47.5225 24.8247 47.675 24.3925L54.2024 7.65807C54.3244 7.38019 54.5989 7.16406 54.9039 7.16406H55.9715C56.49 7.16406 56.8561 7.71982 56.673 8.21382L48.8036 27.8505C48.6815 28.1284 48.407 28.3136 48.102 28.3136H46.1804C45.8754 28.3445 45.6009 28.1592 45.5094 27.8505Z" fill="#222F3E"/>
<path d="M66.5559 28.714C64.5428 28.714 62.7432 28.22 61.1876 27.2011C59.6015 26.2131 58.3509 24.8546 57.4663 23.1874C56.5513 21.5201 56.0938 19.6676 56.0938 17.6607C56.0938 15.6847 56.5208 13.863 57.4053 12.2266C58.3204 10.5902 59.571 9.26261 61.1266 8.27461C62.7127 7.2866 64.4818 6.76172 66.4949 6.76172C68.569 6.76172 70.3686 7.25572 71.9242 8.27461C73.4798 9.26261 74.6694 10.5903 75.5235 12.2575C76.408 13.8939 76.835 15.6538 76.835 17.6298C76.835 17.7533 76.835 17.8768 76.835 17.9694C76.835 18.3708 76.4995 18.7104 76.0725 18.7104H59.449C59.1439 18.7104 58.8999 18.9883 58.9609 19.2662C59.1439 20.563 59.5405 21.7362 60.181 22.7551C60.9131 23.9284 61.8281 24.8546 62.9567 25.5647C64.0852 26.244 65.3053 26.5836 66.6474 26.5836C68.02 26.5836 69.3011 26.244 70.4906 25.5339C71.5277 24.9472 72.2903 24.1754 72.8088 23.2491C72.9613 22.9712 73.3273 22.8477 73.6323 22.9095L74.5169 23.1565C74.9744 23.28 75.2184 23.8357 74.9744 24.268C74.5779 24.9472 74.0594 25.5956 73.3883 26.1514C72.5038 26.9233 71.4667 27.5716 70.3076 28.0039C69.2096 28.4979 67.9285 28.714 66.5559 28.714ZM59.4185 16.7344H74.3034C74.1814 15.2215 73.7848 13.8939 73.0528 12.7206C72.3208 11.5165 71.4057 10.6211 70.2771 9.97274C69.1486 9.29349 67.898 8.95386 66.5559 8.95386C65.1833 8.95386 63.9632 9.29349 62.8347 9.97274C61.7061 10.6211 60.791 11.5474 60.059 12.7206C59.449 13.7395 59.0524 14.8819 58.8999 16.1787C58.8694 16.4565 59.1134 16.7344 59.4185 16.7344Z" fill="#222F3E"/>
<path d="M88.6987 26.6145C88.8208 26.985 88.6377 27.3863 88.2717 27.5407C87.9667 27.6642 87.6007 27.8186 87.1432 28.0039C86.2891 28.3435 85.313 28.5287 84.1845 28.5287C82.9949 28.5287 81.9883 28.1891 81.1038 27.5099C80.2192 26.8306 79.7922 25.8117 79.7922 24.4532V9.84921C79.7922 9.57133 79.5787 9.3552 79.3042 9.3552H77.6571C77.2301 9.3552 76.8945 9.01557 76.8945 8.58332V7.90407C76.8945 7.47181 77.2301 7.13218 77.6571 7.13218H79.3042C79.5787 7.13218 79.7922 6.91606 79.7922 6.63818V0.771881C79.7922 0.339628 80.1277 0 80.5548 0H81.7748C82.2019 0 82.5374 0.339628 82.5374 0.771881V6.66905C82.5374 6.94693 82.7509 7.16306 83.0254 7.16306H86.5941C87.0211 7.16306 87.3567 7.50269 87.3567 7.93494V8.6142C87.3567 9.04645 87.0211 9.38608 86.5941 9.38608H83.0254C82.7509 9.38608 82.5374 9.6022 82.5374 9.88008V23.7431C82.5984 24.515 82.8729 25.1016 83.3304 25.503C83.849 25.8426 84.4285 26.0278 85.069 26.0278C85.8316 26.0278 86.4721 25.9043 87.0822 25.6573C87.2347 25.5956 87.3872 25.5338 87.5092 25.4721C87.9057 25.2868 88.3937 25.503 88.5157 25.9352L88.6987 26.6145Z" fill="#222F3E"/>
<path d="M100.137 26.6145C100.259 26.985 100.076 27.3863 99.7104 27.5407C99.4054 27.6642 99.0394 27.8186 98.5819 28.0039C97.7278 28.3435 96.7517 28.5287 95.6232 28.5287C94.4336 28.5287 93.427 28.1891 92.5425 27.5099C91.6579 26.8306 91.2309 25.8117 91.2309 24.4532V9.84921C91.2309 9.57133 91.0174 9.3552 90.7429 9.3552H89.0653C88.6383 9.3552 88.3027 9.01557 88.3027 8.58332V7.90407C88.3027 7.47181 88.6383 7.13218 89.0653 7.13218H90.7124C90.9869 7.13218 91.2004 6.91606 91.2004 6.63818V0.771881C91.2004 0.339628 91.5359 0 91.963 0H93.183C93.6101 0 93.9456 0.339628 93.9456 0.771881V6.66905C93.9456 6.94693 94.1591 7.16306 94.4336 7.16306H98.0023C98.4293 7.16306 98.7649 7.50269 98.7649 7.93494V8.6142C98.7649 9.04645 98.4293 9.38608 98.0023 9.38608H94.4336C94.1591 9.38608 93.9456 9.6022 93.9456 9.88008V23.7431C94.0066 24.515 94.2811 25.1016 94.7386 25.503C95.2572 25.8426 95.8367 26.0278 96.4772 26.0278C97.2398 26.0278 97.8803 25.9043 98.4904 25.6573C98.6429 25.5956 98.7954 25.5338 98.9174 25.4721C99.3139 25.2868 99.8019 25.503 99.9239 25.9352L100.137 26.6145Z" fill="#222F3E"/>
<path d="M109.806 28.591C107.793 28.591 105.993 28.097 104.438 27.0781C102.851 26.0901 101.601 24.7316 100.716 23.0643C99.8013 21.397 99.3438 19.5445 99.3438 17.5376C99.3438 15.5616 99.7708 13.74 100.655 12.1036C101.57 10.4672 102.821 9.13957 104.377 8.15156C105.963 7.16355 107.732 6.63867 109.745 6.63867C111.819 6.63867 113.619 7.13268 115.174 8.15156C116.73 9.13957 117.919 10.4672 118.773 12.1345C119.658 13.7709 120.085 15.5307 120.085 17.5068C120.085 17.6303 120.085 17.7538 120.085 17.8464C120.085 18.2478 119.75 18.5874 119.322 18.5874H102.699C102.394 18.5874 102.15 18.8653 102.211 19.1431C102.394 20.4399 102.79 21.5823 103.431 22.6321C104.163 23.8053 105.078 24.7316 106.207 25.4417C107.335 26.121 108.555 26.4606 109.897 26.4606C111.27 26.4606 112.551 26.121 113.741 25.4108C114.778 24.8242 115.54 24.0523 116.059 23.1261C116.211 22.8482 116.577 22.7247 116.882 22.7864L117.767 23.0334C118.224 23.1569 118.468 23.7127 118.224 24.1449C117.828 24.8242 117.309 25.4726 116.638 26.0283C115.754 26.8002 114.717 27.4486 113.558 27.8808C112.429 28.3749 111.148 28.591 109.806 28.591ZM102.638 16.6114H116.974C117.279 16.6114 117.523 16.3335 117.462 16.0556C117.309 14.7589 116.913 13.6165 116.272 12.5976C115.54 11.3935 114.625 10.4981 113.497 9.8497C112.368 9.17044 111.117 8.83082 109.775 8.83082C108.403 8.83082 107.183 9.17044 106.054 9.8497C104.926 10.4981 104.011 11.4243 103.278 12.5976C102.668 13.6165 102.272 14.7589 102.119 16.0556C102.119 16.3644 102.363 16.6114 102.638 16.6114Z" fill="#222F3E"/>
<path d="M35.6875 7.00939L37.8226 24.6392C38.0361 26.3064 36.8465 27.8193 35.1994 28.0354L25.5608 29.2396C23.9137 29.4557 22.4191 28.2516 22.2056 26.5843L20.04 8.80015C20.0095 8.4914 20.223 8.18265 20.5585 8.15177L22.1141 7.96652C22.4191 7.93565 22.7242 8.15177 22.7547 8.4914L24.7678 25.0097C24.8593 25.8433 25.6218 26.4299 26.4454 26.3373L33.6743 25.4419C34.4979 25.3493 35.0774 24.5774 34.9859 23.7438L32.9728 7.16377C32.9423 6.85501 33.1558 6.54626 33.4913 6.51539L34.8944 6.33013C35.2604 6.26838 35.657 6.57714 35.6875 7.00939Z" fill="#ACBAC9"/>
<path d="M32.5161 23.805L27.1783 24.4534C26.8122 24.5151 26.4462 24.2373 26.4157 23.8359L25.7447 18.371L25.2871 14.5424C25.2566 14.3881 25.4092 14.2954 25.5312 14.3263L26.3242 14.5733C27.9103 15.0364 29.5879 15.0056 31.1435 14.4189L31.784 14.1719C31.9061 14.1411 32.0281 14.2028 32.0281 14.3263L33.0651 23.0023C33.1566 23.4036 32.8821 23.7741 32.5161 23.805Z" fill="#0B66EF"/>
</svg>

<svg width="121" height="30" fill="none" xmlns="http://www.w3.org/2000/svg"><path d="M10.523 28.714c-2.043 0-3.843-.494-5.43-1.513-1.585-1.019-2.805-2.377-3.72-4.014C.458 21.52 0 19.667 0 17.661c0-2.007.427-3.829 1.312-5.434.884-1.637 2.104-2.964 3.69-3.952 1.586-.988 3.386-1.513 5.46-1.513 1.952 0 3.66.463 5.124 1.39 1.22.71 2.166 1.666 2.898 2.809a.77.77 0 0 1-.396 1.142l-1.22.402a.736.736 0 0 1-.854-.34 6.022 6.022 0 0 0-2.197-2.007c-1.037-.618-2.196-.926-3.477-.926-1.403 0-2.715.37-3.843 1.111-1.129.741-2.044 1.76-2.715 3.057-.67 1.266-1.006 2.717-1.006 4.292 0 1.605.335 3.056 1.037 4.353.701 1.297 1.616 2.346 2.775 3.118 1.16.772 2.41 1.143 3.813 1.143.915 0 1.8-.155 2.654-.494.854-.34 1.586-.772 2.196-1.297a5.385 5.385 0 0 0 1.007-1.266.738.738 0 0 1 .854-.37l1.22.37c.457.124.67.649.457 1.08-.366.68-.854 1.297-1.464 1.884a9.221 9.221 0 0 1-3.05 1.853c-1.16.432-2.44.648-3.752.648zM45.51 27.85 37.64 8.215a.755.755 0 0 1 .701-1.05h1.22c.306 0 .58.185.702.494l6.497 16.734a.485.485 0 0 0 .915 0l6.527-16.734c.122-.278.397-.494.702-.494h1.067c.519 0 .885.556.702 1.05l-7.87 19.636a.77.77 0 0 1-.701.464H46.18a.628.628 0 0 1-.67-.463zM66.556 28.714c-2.013 0-3.813-.494-5.368-1.513a10.412 10.412 0 0 1-3.722-4.014c-.915-1.667-1.372-3.52-1.372-5.526 0-1.976.427-3.798 1.311-5.434a10.954 10.954 0 0 1 3.722-3.952c1.586-.988 3.355-1.513 5.368-1.513 2.074 0 3.874.494 5.43 1.513 1.555.988 2.744 2.315 3.599 3.982.884 1.637 1.311 3.397 1.311 5.373v.34a.753.753 0 0 1-.762.74H59.449c-.305 0-.55.278-.488.556.183 1.297.58 2.47 1.22 3.49a8.67 8.67 0 0 0 2.776 2.809 7 7 0 0 0 3.69 1.019c1.373 0 2.654-.34 3.844-1.05 1.037-.587 1.8-1.359 2.318-2.285.152-.278.518-.401.823-.34l.885.248c.457.123.701.679.457 1.111a7.03 7.03 0 0 1-1.586 1.883 10.038 10.038 0 0 1-3.08 1.853c-1.098.494-2.38.71-3.752.71zm-7.137-11.98h14.884c-.122-1.513-.518-2.84-1.25-4.013-.732-1.204-1.647-2.1-2.776-2.748a7.107 7.107 0 0 0-3.721-1.02c-1.373 0-2.593.34-3.721 1.02-1.129.648-2.044 1.574-2.776 2.748a8.586 8.586 0 0 0-1.16 3.458c-.03.277.214.555.52.555zM88.699 26.614a.75.75 0 0 1-.427.927c-.305.123-.671.278-1.129.463-.854.34-1.83.525-2.959.525-1.19 0-2.196-.34-3.08-1.02-.885-.678-1.312-1.697-1.312-3.056V9.85a.485.485 0 0 0-.488-.494h-1.647a.76.76 0 0 1-.763-.772v-.679a.76.76 0 0 1 .763-.772h1.647a.485.485 0 0 0 .488-.494V.772A.76.76 0 0 1 80.555 0h1.22a.76.76 0 0 1 .762.772v5.897c0 .278.214.494.488.494h3.57a.76.76 0 0 1 .762.772v.68a.76.76 0 0 1-.763.771h-3.569a.485.485 0 0 0-.488.494v13.863c.061.772.336 1.359.793 1.76.519.34 1.099.525 1.739.525.763 0 1.403-.124 2.013-.37a5.94 5.94 0 0 0 .427-.186.732.732 0 0 1 1.007.463l.183.68zM100.137 26.614a.75.75 0 0 1-.427.927c-.305.123-.67.278-1.128.463-.854.34-1.83.525-2.959.525-1.19 0-2.196-.34-3.08-1.02-.885-.678-1.312-1.697-1.312-3.056V9.85a.485.485 0 0 0-.488-.494h-1.678a.76.76 0 0 1-.762-.772v-.679a.76.76 0 0 1 .762-.772h1.647a.485.485 0 0 0 .488-.494V.772A.76.76 0 0 1 91.963 0h1.22a.76.76 0 0 1 .763.772v5.897c0 .278.213.494.488.494h3.568a.76.76 0 0 1 .763.772v.68a.76.76 0 0 1-.763.771h-3.568a.485.485 0 0 0-.488.494v13.863c.06.772.335 1.359.793 1.76.518.34 1.098.525 1.738.525.763 0 1.403-.124 2.013-.37a5.94 5.94 0 0 0 .427-.186.732.732 0 0 1 1.007.463l.213.68z" fill="#222F3E"/><path d="M109.806 28.591c-2.013 0-3.813-.494-5.368-1.513-1.587-.988-2.837-2.346-3.722-4.014-.915-1.667-1.372-3.52-1.372-5.526 0-1.976.427-3.798 1.311-5.434a10.952 10.952 0 0 1 3.722-3.952c1.586-.988 3.355-1.513 5.368-1.513 2.074 0 3.874.494 5.429 1.513 1.556.988 2.745 2.315 3.599 3.982.885 1.637 1.312 3.397 1.312 5.373v.34a.753.753 0 0 1-.763.74h-16.623c-.305 0-.549.278-.488.556.183 1.297.579 2.44 1.22 3.49a8.667 8.667 0 0 0 2.776 2.809 6.996 6.996 0 0 0 3.69 1.019c1.373 0 2.654-.34 3.844-1.05 1.037-.587 1.799-1.359 2.318-2.285.152-.278.518-.401.823-.34l.885.247c.457.124.701.68.457 1.112a7.02 7.02 0 0 1-1.586 1.883 10.028 10.028 0 0 1-3.08 1.853c-1.129.494-2.41.71-3.752.71zm-7.168-11.98h14.336c.305 0 .549-.277.488-.555-.153-1.297-.549-2.44-1.19-3.458-.732-1.205-1.647-2.1-2.775-2.748a7.11 7.11 0 0 0-3.722-1.02c-1.372 0-2.592.34-3.721 1.02-1.128.648-2.043 1.574-2.776 2.748a8.593 8.593 0 0 0-1.159 3.458c0 .308.244.555.519.555z" fill="#222F3E"/><path d="m35.688 7.01 2.135 17.63a3.044 3.044 0 0 1-2.624 3.395l-9.638 1.205c-1.647.216-3.142-.988-3.355-2.656L20.04 8.8a.586.586 0 0 1 .518-.648l1.556-.185c.305-.031.61.185.64.524l2.014 16.519c.091.833.854 1.42 1.677 1.327l7.23-.895c.823-.093 1.402-.865 1.31-1.698l-2.012-16.58a.586.586 0 0 1 .518-.649l1.403-.185c.366-.062.763.247.794.68z" fill="#ACBAC9"/><path d="m32.516 23.805-5.338.648a.669.669 0 0 1-.762-.617l-.671-5.465-.458-3.829c-.03-.154.122-.247.244-.216l.793.247c1.586.463 3.264.433 4.82-.154l.64-.247c.122-.03.244.03.244.154l1.037 8.676c.092.402-.183.772-.549.803z" fill="#0B66EF"/></svg>
